packages/icons/src/layout.svg

<svg width="15" height="15" viewBox="0 0 15 15" fill="none" xmlns="http://www.w3.org/2000/svg">
  <path
    fill-rule="evenodd"
    clip-rule="evenodd"
    d="M9 2H6V13H9V2ZM10 2V13H12.5C12.7761 13 13 12.7761 13 12.5V2.5C13 2.22386 12.7761 2 12.5 2H10ZM2.5 2H5V13H2.5C2.22386 13 2 12.7761 2 12.5V2.5C2 2.22386 2.22386 2 2.5 2ZM2.5 1C1.67157 1 1 1.67157 1 2.5V12.5C1 13.3284 1.67157 14 2.5 14H12.5C13.3284 14 14 13.3284 14 12.5V2.5C14 1.67157 13.3284 1 12.5 1H2.5Z"
    fill="currentColor"
  />
</svg>

<svg xmlns="http://www.w3.org/2000/svg" width="15" height="15" fill="none"><path fill="currentColor" fill-rule="evenodd" d="M9 2H6v11h3zm1 0v11h2.5a.5.5 0 0 0 .5-.5v-10a.5.5 0 0 0-.5-.5zM2.5 2H5v11H2.5a.5.5 0 0 1-.5-.5v-10a.5.5 0 0 1 .5-.5m0-1A1.5 1.5 0 0 0 1 2.5v10A1.5 1.5 0 0 0 2.5 14h10a1.5 1.5 0 0 0 1.5-1.5v-10A1.5 1.5 0 0 0 12.5 1z" clip-rule="evenodd"/></svg>
